picto/cycling-prohibited-left-framed.svg

<svg class="color-immutable" width="30" height="30" viewBox="0 0 30 30" fill="none" xmlns="http://www.w3.org/2000/svg"><path d="M29.9999 0H0V29.9999H29.9999V0Z" fill="#2D327D"/><path d="M25.4999 2.99999C26.3249 2.99999 26.9999 3.67499 26.9999 4.49999V25.4999C26.9999 26.3249 26.3249 26.9999 25.4999 26.9999H4.49999C3.67499 26.9999 2.99999 26.3249 2.99999 25.4999V4.49999C2.99999 3.67499 3.67499 2.99999 4.49999 2.99999H25.4999ZM25.4999 2.62499H4.49999C3.46612 2.62499 2.62499 3.46612 2.62499 4.49999V25.4999C2.62499 26.5338 3.46612 27.3749 4.49999 27.3749H25.4999C26.5338 27.3749 27.3749 26.5338 27.3749 25.4999V4.49999C27.3749 3.46612 26.5338 2.62499 25.4999 2.62499Z" fill="white"/><path d="M16.9999 14.7336L18.8104 15.3666C18.8494 15.3815 18.8923 15.3879 18.9341 15.3879C19.0594 15.3879 19.1755 15.3257 19.2452 15.2218L19.6521 14.6186C19.6854 14.5685 19.7023 14.5099 19.7023 14.4514C19.7023 14.2853 19.5684 14.1507 19.403 14.1507H17.0993C16.9329 14.1507 16.7983 14.2853 16.7983 14.4514C16.7984 14.5786 16.88 14.6919 16.9999 14.7336Z" fill="white"/><path d="M10.6652 15.7259H11.0403C11.2057 15.7259 11.3406 15.5913 11.3406 15.4259C11.3406 15.2598 11.2057 15.1253 11.0403 15.1253H10.6652C10.4998 15.1253 10.3659 15.2598 10.3659 15.4259C10.3659 15.5913 10.4998 15.7259 10.6652 15.7259Z" fill="white"/><path d="M23.3904 22.3133C23.7852 21.7274 24.0157 21.0221 24.0157 20.2634C24.0157 18.2338 22.3694 16.5876 20.3406 16.5876C19.7561 16.5876 19.1794 16.7269 18.66 16.9941L17.9399 15.8383H16.9154L6.70834 5.63129L5.64769 6.69186L13.1064 14.1506H10.6652C10.4998 14.1506 10.3659 14.2852 10.3659 14.4513C10.3659 14.6167 10.4998 14.7513 10.6652 14.7513H13.2904V14.3346L14.7941 15.8382H12.0901L11.3703 16.9941C10.8509 16.7268 10.275 16.5876 9.69056 16.5876C7.66174 16.5876 6.01556 18.2337 6.01556 20.2633C6.01556 22.2911 7.66174 23.9383 9.69056 23.9383C11.7186 23.9383 13.3648 22.2911 13.3648 20.2633C13.3648 19.099 12.8147 18.0053 11.88 17.3108L12.2834 16.6628L14.2491 19.5856C14.1134 19.7574 14.0401 19.9691 14.0401 20.1882C14.0401 20.7257 14.4775 21.163 15.0144 21.163C15.3935 21.163 15.7382 20.9429 15.8989 20.6003H16.6812C16.8549 22.4916 18.4415 23.9383 20.3405 23.9383C21.0678 23.9383 21.7454 23.7257 22.3162 23.3606L22.9897 24.0341L24.0502 22.9733L23.3904 22.3133ZM12.7656 20.2634C12.7656 21.9607 11.3879 23.3384 9.69056 23.3384C7.99323 23.3384 6.61481 21.9606 6.61481 20.2634C6.61481 18.5653 7.99331 17.1882 9.69056 17.1882C10.1634 17.1882 10.6287 17.2969 11.0525 17.5058L9.43503 20.1046C9.40638 20.152 9.39056 20.2068 9.39056 20.2634C9.39056 20.4287 9.52413 20.5634 9.69056 20.5634C9.79466 20.5634 9.89028 20.5094 9.94503 20.4212L11.5625 17.8234C12.3207 18.4055 12.7656 19.3071 12.7656 20.2634ZM17.747 16.6628L17.7587 16.6815L17.7442 16.6671L17.747 16.6628ZM15.2841 19.2504C15.1968 19.2253 15.1066 19.2132 15.0146 19.2132C14.9246 19.2132 14.8344 19.2253 14.7472 19.2504L12.8558 16.438H15.3938L16.459 17.5032L15.2841 19.2504ZM16.6747 20.0006H15.9724C15.9427 19.8493 15.8779 19.7063 15.782 19.5856L16.8914 17.9355L17.243 18.2872C16.9181 18.7968 16.7192 19.3841 16.6747 20.0006ZM17.6794 18.7236L18.9563 20.0006H17.2766C17.3155 19.5453 17.4556 19.1105 17.6794 18.7236ZM20.3406 23.3384C18.7724 23.3384 17.456 22.1583 17.2832 20.6003H19.5562L21.8801 22.9242C21.4272 23.1872 20.9017 23.3384 20.3406 23.3384ZM22.9558 21.8786L19.6294 18.5522L18.9779 17.5057C19.4015 17.2968 19.8678 17.1882 20.3406 17.1882C22.0379 17.1882 23.4145 18.5652 23.4145 20.2633C23.4146 20.8558 23.2464 21.4091 22.9558 21.8786Z" fill="white"/><path d="M6.70834 5.63129L5.64769 6.69186L22.9899 24.0341L24.0504 22.9732L6.70834 5.63129Z" fill="#EB0000"/></svg>

<svg class="color-immutable" width="30" height="30" viewBox="0 0 30 30" fill="none" xmlns="http://www.w3.org/2000/svg"><path d="M30 0H0v30h30V0Z" fill="#2D327D"/><path d="M25.5 3c.825 0 1.5.675 1.5 1.5v21c0 .825-.675 1.5-1.5 1.5h-21c-.825 0-1.5-.675-1.5-1.5v-21C3 3.675 3.675 3 4.5 3h21Zm0-.375h-21A1.877 1.877 0 0 0 2.625 4.5v21c0 1.034.841 1.875 1.875 1.875h21a1.877 1.877 0 0 0 1.875-1.875v-21A1.877 1.877 0 0 0 25.5 2.625Z" fill="#fff"/><path d="m17 14.734 1.81.633a.374.374 0 0 0 .435-.145l.407-.603a.303.303 0 0 0-.249-.468h-2.304a.3.3 0 0 0-.1.583ZM10.665 15.726h.375a.3.3 0 0 0 0-.6h-.375a.3.3 0 0 0 0 .6Z" fill="#fff"/><path d="M23.39 22.313a3.676 3.676 0 0 0-4.73-5.32l-.72-1.155h-1.025L6.708 5.631l-1.06 1.06 7.458 7.46h-2.44a.3.3 0 0 0 0 .6h2.624v-.416l1.504 1.503H12.09l-.72 1.156a3.676 3.676 0 1 0-1.68 6.944 3.677 3.677 0 0 0 2.19-6.627l.403-.648 1.966 2.923A.976.976 0 1 0 15.9 20.6h.782a3.674 3.674 0 0 0 5.635 2.76l.674.673 1.06-1.06-.66-.66Zm-10.624-2.05a3.076 3.076 0 0 1-6.151 0 3.077 3.077 0 0 1 4.438-2.757l-1.618 2.599a.3.3 0 1 0 .51.317l1.617-2.599a3.076 3.076 0 0 1 1.204 2.44Zm4.981-3.6.012.018-.015-.014.003-.004Zm-2.463 2.587a.972.972 0 0 0-.537 0l-1.891-2.812h2.538l1.065 1.065-1.175 1.747Zm1.39.75h-.702a.967.967 0 0 0-.19-.414l1.11-1.65.351.351a3.68 3.68 0 0 0-.568 1.714Zm1.005-1.276L18.956 20h-1.68c.04-.456.18-.89.403-1.277Zm2.662 4.614a3.077 3.077 0 0 1-3.058-2.738h2.273l2.324 2.324a3.055 3.055 0 0 1-1.54.414Zm2.615-1.46-3.327-3.326-.651-1.046a3.075 3.075 0 0 1 3.978 4.373Z" fill="#fff"/><path d="m6.708 5.631-1.06 1.06L22.99 24.035l1.06-1.06L6.708 5.63Z" fill="#EB0000"/></svg>
